X: 18951
T: Iníon Ní Scannláin
R: waltz
M: 3/4
K: Gmajor
G3 A{B}AG|BGE {F}E {F}E/D/E/F/|G2 G A{B}AG|Bd{e}d GB/c/d|
e3 gfd|e2e dB/A/G|A2{B}A GAB|1 {c}Bd{e}d eBA:|2 {c}Bd{e}d GB/c/d||
e3 a{b}ab|g2{a}g fge|d3 efg|BAG2 B/c/d|
e3 a{b}ab|g2{a}g de/f/g/a/|b6|bd ad gd|
e3 gfd|e2e dB/A/G|A2{B}A GAB|{c}Bd{e}d eB/A/G|
A2A BAG|{D}E2{F}E DE/F/G|A2{B}A GAB|{c}Bd{e}d eBA||

